X:061 
T:Morgan Rattler    
F:file ID levey.1/061morgan
Z:bill@capeirish.com
Y:"very quick"
B:Levey1.17
Q:160
L:1/8
R:jig
M:6/8
K:G
e|:d>cB A>Bc|BAB G2e|d>cB ABd|e2d efg|
d>cB A>Bc|BAB G2d|gfg agf|e2d efg :|
G2g gfg|A2a aga|G2g gfg|e2d efg|
G2g gfg|A2a aga|bag fed|e2d efg :|
"last time"e2d e2f|g6||

